;FLAVOR:Marlin
;TIME:979
;Filament used: 0.519785m
;Layer height: 0.2
;MINX:96.551
;MINY:96.551
;MINZ:0.2
;MAXX:138.449
;MAXY:138.449
;MAXZ:19.6
;POSTPROCESSED
;Generated with Cura_SteamEngine 4.8.0
M140 S50
M105
M190 S50
M104 S200
M105
M109 S200
M82 ;absolute extrusion mode
; Ender 3 Custom Start G-code
G92 E0 ; Reset Extruder
G28 ; Home all axes
G1 Z2.0 F3000 ; Move Z Axis up little to prevent scratching of Heat Bed
G1 X0.1 Y20 Z0.3 F5000.0 ; Move to start position
G1 X0.1 Y200.0 Z0.3 F1500.0 E15 ; Draw the first line
G1 X0.4 Y200.0 Z0.3 F5000.0 ; Move to side a little
G1 X0.4 Y20 Z0.3 F1500.0 E30 ; Draw the second line
G92 E0 ; Reset Extruder
G1 Z2.0 F3000 ; Move Z Axis up little to prevent scratching of Heat Bed
G1 X5 Y20 Z0.3 F5000.0 ; Move over to prevent blob squish
G92 E0
G92 E0
G1 F2700 E-5
;LAYER_COUNT:100
;LAYER:0
M107
G0 F6000 X99.749 Y99.815 Z0.2
;TYPE:SKIRT
G1 F2700 E0
G1 F1200 X100.437 Y99.178 E0.03119
G1 X101.177 Y98.602 E0.06237
G1 X101.963 Y98.09 E0.09357
G1 X102.79 Y97.648 E0.12476
G1 X103.652 Y97.278 E0.15596
G1 X104.542 Y96.982 E0.18716
G1 X105.454 Y96.764 E0.21835
G1 X106.381 Y96.623 E0.24953
G1 X107.252 Y96.564 E0.27857
G1 X107.573 Y96.555 E0.28925
G1 X107.881 Y96.551 E0.29949
G1 X126.742 Y96.551 E0.92681
G1 X127.598 Y96.562 E0.95529
G1 X128.534 Y96.616 E0.98647
G1 X129.462 Y96.748 E1.01765
G1 X130.376 Y96.96 E1.04885
G1 X131.268 Y97.249 E1.08004
G1 X132.133 Y97.612 E1.11124
G1 X132.963 Y98.048 E1.14242
G1 X133.754 Y98.553 E1.17364
G1 X134.498 Y99.124 E1.20483
G1 X135.191 Y99.756 E1.23602
G1 X135.828 Y100.444 E1.26721
G1 X136.403 Y101.185 E1.29841
G1 X136.914 Y101.971 E1.32959
G1 X137.356 Y102.799 E1.3608
G1 X137.725 Y103.661 E1.39199
G1 X138.02 Y104.551 E1.42318
G1 X138.238 Y105.463 E1.45436
G1 X138.378 Y106.391 E1.48558
G1 X138.436 Y107.252 E1.51428
G1 X138.445 Y107.572 E1.52493
G1 X138.449 Y107.881 E1.53521
G1 X138.448 Y126.849 E2.16608
G1 X138.439 Y127.576 E2.19027
G1 X138.388 Y128.513 E2.22148
G1 X138.256 Y129.441 E2.25265
G1 X138.047 Y130.355 E2.28384
G1 X137.76 Y131.248 E2.31504
G1 X137.398 Y132.114 E2.34625
G1 X136.964 Y132.945 E2.37744
G1 X136.46 Y133.736 E2.40863
G1 X135.891 Y134.481 E2.43981
G1 X135.26 Y135.176 E2.47103
G1 X134.573 Y135.814 E2.50222
G1 X133.834 Y136.391 E2.5334
G1 X133.048 Y136.903 E2.5646
G1 X132.222 Y137.346 E2.59577
G1 X131.36 Y137.718 E2.627
G1 X130.471 Y138.014 E2.65816
G1 X129.559 Y138.234 E2.68937
G1 X128.632 Y138.375 E2.72055
G1 X127.748 Y138.436 E2.75003
G1 X127.427 Y138.445 E2.76071
G1 X127.119 Y138.449 E2.77095
G1 X108.116 Y138.448 E3.40299
G1 X107.418 Y138.439 E3.42621
G1 X106.482 Y138.387 E3.45739
G1 X105.553 Y138.255 E3.4886
G1 X104.639 Y138.045 E3.51979
G1 X103.746 Y137.758 E3.55099
G1 X102.881 Y137.395 E3.58219
G1 X102.05 Y136.961 E3.61337
G1 X101.259 Y136.457 E3.64457
G1 X100.514 Y135.887 E3.67577
G1 X99.82 Y135.256 E3.70696
G1 X99.183 Y134.569 E3.73812
G1 X98.606 Y133.829 E3.76933
G1 X98.094 Y133.043 E3.80053
G1 X97.651 Y132.216 E3.83174
G1 X97.28 Y131.355 E3.86292
G1 X96.984 Y130.465 E3.89412
G1 X96.765 Y129.553 E3.92531
G1 X96.624 Y128.626 E3.9565
G1 X96.564 Y127.737 E3.98613
G1 X96.555 Y127.404 E3.99721
G1 X96.551 Y127.107 E4.00709
G1 X96.552 Y108.076 E4.64007
G1 X96.561 Y107.411 E4.66219
G1 X96.614 Y106.475 E4.69337
G1 X96.746 Y105.546 E4.72458
G1 X96.957 Y104.632 E4.75578
G1 X97.245 Y103.74 E4.78695
G1 X97.608 Y102.875 E4.81815
G1 X98.043 Y102.044 E4.84935
G1 X98.547 Y101.254 E4.88052
G1 X99.117 Y100.509 E4.91172
G1 X99.749 Y99.815 E4.94294
G0 F6000 X100.14 Y99.99
G1 F1200 X100.825 Y99.374 E4.97358
G1 X101.561 Y98.821 E5.0042
G1 X102.342 Y98.333 E5.03483
G1 X103.162 Y97.915 E5.06544
G1 X104.016 Y97.57 E5.09607
G1 X104.896 Y97.3 E5.12669
G1 X105.796 Y97.108 E5.1573
G1 X106.71 Y96.994 E5.18793
G1 X107.263 Y96.964 E5.20635
G1 X107.584 Y96.955 E5.21703
G1 X107.881 Y96.951 E5.22691
G1 X126.742 Y96.951 E5.85423
G1 X127.592 Y96.962 E5.8825
G1 X128.511 Y97.015 E5.91312
G1 X129.422 Y97.148 E5.94374
G1 X130.318 Y97.359 E5.97436
G1 X131.192 Y97.647 E6.00497
G1 X132.039 Y98.01 E6.03561
G1 X132.85 Y98.445 E6.06622
G1 X133.62 Y98.949 E6.09683
G1 X134.344 Y99.518 E6.12746
G1 X135.016 Y100.148 E6.1581
G1 X135.631 Y100.833 E6.18871
G1 X136.184 Y101.569 E6.21933
G1 X136.671 Y102.35 E6.24995
G1 X137.088 Y103.171 E6.28057
G1 X137.433 Y104.025 E6.31121
G1 X137.702 Y104.905 E6.34181
G1 X137.894 Y105.806 E6.37245
G1 X138.007 Y106.719 E6.40305
G1 X138.036 Y107.263 E6.42117
G1 X138.045 Y107.583 E6.43182
G1 X138.049 Y107.881 E6.44173
G1 X138.048 Y126.844 E7.07244
G1 X138.039 Y127.571 E7.09663
G1 X137.988 Y128.49 E7.12724
G1 X137.857 Y129.402 E7.15788
G1 X137.647 Y130.298 E7.18849
G1 X137.361 Y131.173 E7.21911
G1 X137 Y132.02 E7.24973
G1 X136.566 Y132.832 E7.28036
G1 X136.064 Y133.604 E7.31098
G1 X135.496 Y134.329 E7.34162
G1 X134.868 Y135.002 E7.37223
G1 X134.184 Y135.618 E7.40285
G1 X133.449 Y136.172 E7.43346
G1 X132.669 Y136.661 E7.46408
G1 X131.849 Y137.08 E7.49471
G1 X130.996 Y137.426 E7.52532
G1 X130.116 Y137.697 E7.55595
G1 X129.216 Y137.89 E7.58656
G1 X128.302 Y138.005 E7.6172
G1 X127.737 Y138.036 E7.63602
G1 X127.416 Y138.045 E7.6467
G1 X127.119 Y138.049 E7.65658
G1 X108.121 Y138.048 E8.28846
G1 X107.423 Y138.039 E8.31168
G1 X106.504 Y137.987 E8.34229
G1 X105.593 Y137.856 E8.3729
G1 X104.697 Y137.646 E8.40351
G1 X103.822 Y137.359 E8.43414
G1 X102.975 Y136.997 E8.46478
G1 X102.163 Y136.563 E8.4954
G1 X101.392 Y136.061 E8.526
G1 X100.667 Y135.493 E8.55663
G1 X99.994 Y134.864 E8.58727
G1 X99.379 Y134.18 E8.61786
G1 X98.825 Y133.445 E8.64848
G1 X98.337 Y132.664 E8.67911
G1 X97.918 Y131.844 E8.70973
G1 X97.572 Y130.991 E8.74035
G1 X97.302 Y130.111 E8.77097
G1 X97.109 Y129.21 E8.80161
G1 X96.995 Y128.297 E8.83222
G1 X96.964 Y127.726 E8.85124
G1 X96.955 Y127.393 E8.86232
G1 X96.951 Y127.107 E8.87183
G1 X96.952 Y108.082 E9.5046
G1 X96.961 Y107.417 E9.52672
G1 X97.013 Y106.497 E9.55737
G1 X97.145 Y105.586 E9.58799
G1 X97.356 Y104.69 E9.6186
G1 X97.643 Y103.815 E9.64923
G1 X98.006 Y102.969 E9.67985
G1 X98.44 Y102.157 E9.71047
G1 X98.943 Y101.386 E9.74109
G1 X99.512 Y100.662 E9.77172
G1 X100.14 Y99.99 E9.80231
G0 F6000 X100.532 Y100.168
G1 F1200 X101.213 Y99.575 E9.83234
G1 X101.945 Y99.045 E9.8624
G1 X102.72 Y98.582 E9.89243
G1 X103.533 Y98.189 E9.92246
G1 X104.378 Y97.869 E9.95252
G1 X105.247 Y97.626 E9.98253
G1 X106.135 Y97.46 E10.01257
G1 X107.274 Y97.364 E10.05059
G1 X107.595 Y97.355 E10.06127
G1 X107.881 Y97.351 E10.07079
G1 X126.742 Y97.351 E10.6981
G1 X127.586 Y97.362 E10.72618
G1 X128.488 Y97.415 E10.75623
G1 X129.381 Y97.547 E10.78625
G1 X130.259 Y97.758 E10.81629
G1 X131.115 Y98.046 E10.84633
G1 X131.942 Y98.408 E10.87635
G1 X132.734 Y98.843 E10.90641
G1 X133.485 Y99.345 E10.93645
G1 X134.188 Y99.912 E10.96649
G1 X134.838 Y100.539 E10.99653
G1 X135.43 Y101.221 E11.02657
G1 X135.96 Y101.952 E11.0566
G1 X136.422 Y102.728 E11.08664
G1 X136.815 Y103.541 E11.11667
G1 X137.133 Y104.386 E11.1467
G1 X137.376 Y105.256 E11.17674
G1 X137.541 Y106.144 E11.20678
G1 X137.636 Y107.274 E11.2445
G1 X137.645 Y107.594 E11.25515
G1 X137.649 Y107.881 E11.26469
G1 X137.648 Y126.839 E11.89524
G1 X137.639 Y127.566 E11.91942
G1 X137.588 Y128.468 E11.94947
G1 X137.457 Y129.362 E11.97952
G1 X137.248 Y130.24 E12.00954
G1 X136.962 Y131.097 E12.03959
G1 X136.601 Y131.925 E12.06963
G1 X136.169 Y132.717 E12.09964
G1 X135.668 Y133.469 E12.12969
G1 X135.102 Y134.173 E12.15974
G1 X134.477 Y134.824 E12.18975
G1 X133.796 Y135.418 E12.21981
G1 X133.065 Y135.949 E12.24986
G1 X132.291 Y136.413 E12.27987
G1 X131.478 Y136.807 E12.30992
G1 X130.634 Y137.127 E12.33994
G1 X129.764 Y137.372 E12.37001
G1 X128.877 Y137.538 E12.40002
G1 X127.726 Y137.636 E12.43844
G1 X127.405 Y137.645 E12.44912
G1 X127.119 Y137.649 E12.45863
G1 X108.126 Y137.648 E13.09034
G1 X107.428 Y137.639 E13.11356
G1 X106.527 Y137.588 E13.14358
G1 X105.633 Y137.456 E13.17363
G1 X104.755 Y137.247 E13.20365
G1 X103.898 Y136.96 E13.23371
G1 X103.071 Y136.599 E13.26372
G1 X102.278 Y136.166 E13.29378
G1 X101.527 Y135.665 E13.3238
G1 X100.823 Y135.099 E13.35385
G1 X100.172 Y134.473 E13.38389
G1 X99.579 Y133.792 E13.41392
G1 X99.049 Y133.061 E13.44395
G1 X98.585 Y132.286 E13.47399
G1 X98.191 Y131.473 E13.50404
G1 X97.871 Y130.629 E13.53406
G1 X97.627 Y129.759 E13.56412
G1 X97.461 Y128.871 E13.59416
G1 X97.364 Y127.716 E13.63271
G1 X97.355 Y127.383 E13.64379
G1 X97.351 Y127.107 E13.65297
G1 X97.352 Y108.087 E14.28558
G1 X97.361 Y107.422 E14.3077
G1 X97.413 Y106.52 E14.33775
G1 X97.545 Y105.627 E14.36778
G1 X97.755 Y104.749 E14.3978
G1 X98.042 Y103.892 E14.42786
G1 X98.404 Y103.065 E14.45789
G1 X98.837 Y102.273 E14.48791
G1 X99.339 Y101.522 E14.51796
G1 X99.906 Y100.818 E14.54802
G1 X100.532 Y100.168 E14.57804
G1 F2700 E9.57804
;MESH:Cool Bombul.stl
G0 F6000 X107.139 Y107.14
G0 X107.965 Y107.965
G0 X126.667 Y108.333
G0 X126.849 Y126.849
;TYPE:WALL-INNER
G1 F2700 E14.57804
G1 F1200 X108.151 Y126.849 E15.19993
G1 X108.151 Y108.151 E15.82183
G1 X126.849 Y108.151 E16.44373
G1 X126.849 Y126.849 E17.06563
G0 F6000 X127.249 Y127.249
;TYPE:WALL-OUTER
G1 F1200 X107.751 Y127.249 E17.71413
G1 X107.751 Y107.751 E18.36264
G1 X127.249 Y107.751 E19.01115
G1 X127.249 Y127.249 E19.65965
G0 F6000 X126.979 Y126.979
G0 X126.739 Y126.459
G0 X126.459 Y126.459
;TYPE:SKIN
G1 F1200 X108.541 Y126.459 E20.25561
G1 X108.541 Y108.541 E20.85156
G1 X126.459 Y108.541 E21.44752
G1 X126.459 Y126.459 E22.04347
G0 F6000 X126.739 Y126.459
G0 X126.739 Y108.762
G0 X126.298 Y108.762
G1 F1200 X126.237 Y108.701 E22.04634
G0 F6000 X125.671 Y108.701
G1 F1200 X126.298 Y109.327 E22.07581
G0 F6000 X126.298 Y109.893
G1 F1200 X125.106 Y108.701 E22.13188
G0 F6000 X124.54 Y108.701
G1 F1200 X126.298 Y110.459 E22.21457
G0 F6000 X126.298 Y111.024
G1 F1200 X123.974 Y108.701 E22.32386
G0 F6000 X123.409 Y108.701
G1 F1200 X126.298 Y111.59 E22.45975
G0 F6000 X126.298 Y112.156
G1 F1200 X122.843 Y108.701 E22.62226
G0 F6000 X122.277 Y108.701
G1 F1200 X126.298 Y112.722 E22.8114
G0 F6000 X126.298 Y113.287
G1 F1200 X121.712 Y108.701 E23.02711
G0 F6000 X121.146 Y108.701
G1 F1200 X126.298 Y113.853 E23.26944
G0 F6000 X126.298 Y114.419
G1 F1200 X120.58 Y108.701 E23.5384
G0 F6000 X120.015 Y108.701
G1 F1200 X126.298 Y114.984 E23.83393
G0 F6000 X126.298 Y115.55
G1 F1200 X119.449 Y108.701 E24.15609
G0 F6000 X118.883 Y108.701
G1 F1200 X126.298 Y116.116 E24.50487
G0 F6000 X126.298 Y116.681
G1 F1200 X118.318 Y108.701 E24.88022
G0 F6000 X117.752 Y108.701
G1 F1200 X126.298 Y117.247 E25.2822
G0 F6000 X126.298 Y117.813
G1 F1200 X117.186 Y108.701 E25.7108
G0 F6000 X116.621 Y108.701
G1 F1200 X126.298 Y118.378 E26.16598
G0 F6000 X126.298 Y118.944
G1 F1200 X116.055 Y108.701 E26.64778
G0 F6000 X115.489 Y108.701
G1 F1200 X126.298 Y119.51 E27.1562
G0 F6000 X126.298 Y120.075
G1 F1200 X114.923 Y108.701 E27.69122
G0 F6000 X114.358 Y108.701
G1 F1200 X126.298 Y120.641 E28.25284
G0 F6000 X126.298 Y121.207
G1 F1200 X113.792 Y108.701 E28.84109
G0 F6000 X113.226 Y108.701
G1 F1200 X126.298 Y121.772 E29.45593
G0 F6000 X126.298 Y122.338
G1 F1200 X112.661 Y108.701 E30.09737
G0 F6000 X112.095 Y108.701
G1 F1200 X126.298 Y122.904 E30.76544
G0 F6000 X126.298 Y123.47
G1 F1200 X111.529 Y108.701 E31.46013
G0 F6000 X110.964 Y108.701
G1 F1200 X126.298 Y124.035 E32.18139
G0 F6000 X126.298 Y124.601
G1 F1200 X110.398 Y108.701 E32.92928
G0 F6000 X109.832 Y108.701
G1 F1200 X126.298 Y125.167 E33.70379
G0 F6000 X126.298 Y125.732
G1 F1200 X109.267 Y108.701 E34.50487
G0 F6000 X108.7 Y108.7
G1 F1200 X126.298 Y126.298 E35.33263
G0 F6000 X125.732 Y126.298
G1 F1200 X108.7 Y109.266 E36.13376
G0 F6000 X108.7 Y109.832
G1 F1200 X125.167 Y126.298 E36.9083
G0 F6000 X124.601 Y126.298
G1 F1200 X108.7 Y110.397 E37.65623
G0 F6000 X108.7 Y110.963
G1 F1200 X124.035 Y126.298 E38.37754
G0 F6000 X123.47 Y126.298
G1 F1200 X108.7 Y111.529 E39.07225
G0 F6000 X108.7 Y112.094
G1 F1200 X122.904 Y126.298 E39.74037
G0 F6000 X122.338 Y126.298
G1 F1200 X108.7 Y112.66 E40.38186
G0 F6000 X108.7 Y113.226
G1 F1200 X121.772 Y126.298 E40.99672
G0 F6000 X121.207 Y126.298
G1 F1200 X108.7 Y113.791 E41.58501
G0 F6000 X108.7 Y114.357
G1 F1200 X120.641 Y126.298 E42.14668
G0 F6000 X120.075 Y126.298
G1 F1200 X108.7 Y114.923 E42.68173
G0 F6000 X108.7 Y115.488
G1 F1200 X119.51 Y126.298 E43.1902
G0 F6000 X118.944 Y126.298
G1 F1200 X108.7 Y116.054 E43.67204
G0 F6000 X108.7 Y116.62
G1 F1200 X118.378 Y126.298 E44.12727
G0 F6000 X117.813 Y126.298
G1 F1200 X108.7 Y117.185 E44.55591
G0 F6000 X108.7 Y117.751
G1 F1200 X117.247 Y126.298 E44.95794
G0 F6000 X116.681 Y126.298
G1 F1200 X108.7 Y118.317 E45.33334
G0 F6000 X108.7 Y118.883
G1 F1200 X116.116 Y126.298 E45.68214
G0 F6000 X115.55 Y126.298
G1 F1200 X108.7 Y119.448 E46.00434
G0 F6000 X108.7 Y120.014
G1 F1200 X114.984 Y126.298 E46.29993
G0 F6000 X114.419 Y126.298
G1 F1200 X108.7 Y120.58 E46.56891
G0 F6000 X108.7 Y121.145
G1 F1200 X113.853 Y126.298 E46.81129
G0 F6000 X113.287 Y126.298
G1 F1200 X108.7 Y121.711 E47.02705
G0 F6000 X108.7 Y122.277
G1 F1200 X112.722 Y126.298 E47.2162
G0 F6000 X112.156 Y126.298
G1 F1200 X108.7 Y122.842 E47.37876
G0 F6000 X108.7 Y123.408
G1 F1200 X111.59 Y126.298 E47.5147
G0 F6000 X111.024 Y126.298
G1 F1200 X108.7 Y123.974 E47.62401
G0 F6000 X108.7 Y124.539
G1 F1200 X110.459 Y126.298 E47.70675
G0 F6000 X109.893 Y126.298
G1 F1200 X108.7 Y125.105 E47.76287
G0 F6000 X108.7 Y125.671
G1 F1200 X109.327 Y126.298 E47.79236
G0 F6000 X108.762 Y126.298
G1 F1200 X108.7 Y126.236 E47.79528
G0 F6000 X108.351 Y126.236
;MESH:NONMESH
G0 F300 X108.351 Y126.236 Z0.4
G0 F6000 X108.261 Y126.236
G0 X108.333 Y126.667
G0 X126.749 Y126.749
;TIME_ELAPSED:83.371788
;LAYER:1
M106 S85
;TYPE:WALL-INNER
;MESH:Cool Bombul.stl
G1 F1350 X108.251 Y126.749 E48.41052
G1 X108.251 Y108.251 E49.02577
G1 X126.749 Y108.251 E49.64101
G1 X126.749 Y126.749 E50.25626
G0 F7500 X127.149 Y127.149
;TYPE:WALL-OUTER
G1 F1350 X107.851 Y127.149 E50.89811
G1 X107.851 Y107.851 E51.53997
G1 X127.149 Y107.851 E52.18182
G1 X127.149 Y127.149 E52.82368
G0 F7500 X126.879 Y126.879
G0 X126.639 Y126.359
G0 X126.359 Y126.359
;TYPE:SKIN
G1 F1350 X108.641 Y126.359 E53.41298
G1 X108.641 Y108.641 E54.00228
G1 X126.359 Y108.641 E54.59159
G1 X126.359 Y126.359 E55.18089
G0 F7500 X126.096 Y126.198
G1 F1350 X126.198 Y126.096 E55.18569
G0 F7500 X126.198 Y125.531
G1 F1350 X125.531 Y126.198 E55.21706
G0 F7500 X124.965 Y126.198
G1 F1350 X126.198 Y124.965 E55.27506
G0 F7500 X126.198 Y124.399
G1 F1350 X124.399 Y126.198 E55.35968
G0 F7500 X123.834 Y126.198
G1 F1350 X126.198 Y123.834 E55.47087
G0 F7500 X126.198 Y123.268
G1 F1350 X123.268 Y126.198 E55.60869
G0 F7500 X122.702 Y126.198
G1 F1350 X126.198 Y122.702 E55.77313
G0 F7500 X126.198 Y122.137
G1 F1350 X122.137 Y126.198 E55.96415
G0 F7500 X121.571 Y126.198
G1 F1350 X126.198 Y121.571 E56.18179
G0 F7500 X126.198 Y121.005
G1 F1350 X121.005 Y126.198 E56.42605
G0 F7500 X120.44 Y126.198
G1 F1350 X126.198 Y120.44 E56.69689
G0 F7500 X126.198 Y119.874
G1 F1350 X119.874 Y126.198 E56.99435
G0 F7500 X119.308 Y126.198
G1 F1350 X126.198 Y119.308 E57.31844
G0 F7500 X126.198 Y118.743
G1 F1350 X118.743 Y126.198 E57.6691
G0 F7500 X118.177 Y126.198
G1 F1350 X126.198 Y118.177 E58.04638
G0 F7500 X126.198 Y117.611
G1 F1350 X117.611 Y126.198 E58.45028
G0 F7500 X117.045 Y126.198
G1 F1350 X126.198 Y117.045 E58.88081
G0 F7500 X126.198 Y116.48
G1 F1350 X116.48 Y126.198 E59.33792
G0 F7500 X115.914 Y126.198
G1 F1350 X126.198 Y115.914 E59.82165
G0 F7500 X126.198 Y115.348
G1 F1350 X115.348 Y126.198 E60.332
G0 F7500 X114.783 Y126.198
G1 F1350 X126.198 Y114.783 E60.86892
G0 F7500 X126.198 Y114.217
G1 F1350 X114.217 Y126.198 E61.43247
